web/file/cursor/input.svg

<svg width="8" height="18" viewBox="0 0 8 18" fill="none" xmlns="http://www.w3.org/2000/svg"><path d="m0 18 .5-2H3V2H.5L0 0h8l-.5 2H5v14h2.5l.5 2H0Z" fill="#fff"/><path d="m.5 17.5.5-1.033h2.5V1.533L1 1.5.5.5h7L7 1.533 4.5 1.5v14.967H7l.5 1.033h-7Z" fill="#000"/></svg>

<svg width="8" height="18" viewBox="0 0 8 18" fill="none" xmlns="http://www.w3.org/2000/svg">
<path d="M0 18L0.5 16H3V2H0.5L0 0H8L7.5 2H5V16H7.5L8 18H0Z" fill="white"/>
<path d="M0.5 17.5L1 16.4667H3.5V1.53333L1 1.5L0.5 0.5H7.5L7 1.53333L4.5 1.5V16.4667H7L7.5 17.5H4H0.5Z" fill="black"/>
</svg>
